X: 38046
T: Spike Island Lasses, The
R: reel
M: 4/4
K: Dmajor
=cAGc ADDE|(3FED AD FGAB|=c2Bc AGFG|Adde fded|
=cAGc ADDE|(3FED AD FGAB|=c2Bc AGFG|Addc d3 e||
f2df e2^ce|dfed cA Ag|fedf edcB|Addc dAcd|
ea ag efge|dfed =cAGc|Add^c d3 ^c|Acde fded||
=cAGc A3d|B3=d A3B|=c2Bc AGFG|Adde fded|
=cAGc A3c|BGGF G3B|=c2Bc AGFG|Add^c d3e||
f2af f2af|f2af ge^ce|f2af fede|fagf d^cAc|
defg a3b|agfa g3g|fedf edcB|1 Adde fded:|2 Addc d4||

